src/icons/health.svg

<svg width="18px" height="16px" viewBox="0 0 18 16" version="1.1" xmlns="http://www.w3.org/2000/svg" xmlns:xlink="http://www.w3.org/1999/xlink">
    <g id="HEALTH" stroke="none" stroke-width="1" fill="none" fill-rule="evenodd">
        <g id="Group" transform="translate(0.000000, -0.000000)" fill="#FF6687" fill-rule="nonzero" stroke="#FF5785" stroke-width="0.2">
            <path d="M1.36968758,1.41369712 C-0.452715814,3.30083318 -0.4579507,6.32970516 1.36234453,8.21826864 L8.65356886,15.7845889 C8.83008636,15.9692396 9.16547434,15.9692396 9.34199184,15.7845889 C11.7742239,13.2658808 14.2009595,10.7443365 16.6332152,8.22558154 C18.4555949,6.33842438 18.4555949,3.30819062 16.6332152,1.42102174 C14.8108355,-0.466140111 11.8305759,-0.4661823 10.0081962,1.42102174 L9.0014874,2.45379309 L7.99477865,1.41369712 C7.01230198,0.392401395 5.79503713,-0.00490003044 4.67853791,-4.47228989e-05 C3.4764566,-4.47228989e-05 2.2808656,0.470110334 1.36968758,1.41369712 Z M4.54077139,0.692307692 C5.51784951,0.692307692 6.50005856,1.09176683 7.25894944,1.89103919 L8.64857979,3.35871686 C8.83065496,3.55242942 9.17660267,3.55242942 9.35867784,3.35871686 L10.7406606,1.89872337 C12.2584424,0.300146678 14.6516109,0.300181103 16.1693926,1.89872337 C17.6871255,3.4972681 17.6871255,6.07867921 16.1693926,7.67721164 C13.7798891,10.1939085 11.3892851,12.7141216 8.99980504,15.2307692 L1.8302409,7.66953976 C0.313509762,6.06902543 0.312483574,3.48954458 1.8302409,1.89103919 C2.58910734,1.09176929 3.56369328,0.692307692 4.54077139,0.692307692 Z" id="Shape"></path>
        </g>
    </g>
</svg>

<svg width="18" height="16" xmlns="http://www.w3.org/2000/svg"><path d="M1.37 1.414C-.453 3.3-.458 6.33 1.362 8.218l7.292 7.567a.497.497 0 00.688 0c2.432-2.52 4.859-5.04 7.291-7.56 1.823-1.887 1.823-4.917 0-6.804a4.584 4.584 0 00-6.625 0L9.001 2.454l-1.006-1.04A4.52 4.52 0 004.679 0C3.476 0 2.28.47 1.369 1.414zM4.54.692c.978 0 1.96.4 2.719 1.199l1.39 1.468a.506.506 0 00.71 0l1.382-1.46C12.258.3 14.65.3 16.169 1.899c1.518 1.598 1.518 4.18 0 5.778L9 15.231 1.83 7.67C.314 6.069.312 3.49 1.83 1.89c.76-.8 1.734-1.199 2.71-1.199z" fill="#FF6687" fill-rule="nonzero" stroke="#FF5785" stroke-width=".2"/></svg>
